public/images/categories/chat.svg

<?xml version="1.0" encoding="UTF-8" standalone="no"?>
<svg
   width="20"
   height="20"
   viewBox="0 0 20 20"
   fill="currentColor"
   version="1.1"
   id="svg4"
   xmlns="http://www.w3.org/2000/svg"
   xmlns:svg="http://www.w3.org/2000/svg">
  <defs
     id="defs8" />
  <path
     id="path2"
     d="M 6.9238281,0 C 5.0886881,0.0029189 3.32912,0.733556 2.03125,2.03125 0.733373,3.32895 0.00290106,5.0885581 0,6.9238281 V 19.230469 c -3.4338001e-4,0.1472 0.04211015,0.291815 0.12109375,0.416015 0.079155,0.1241 0.19080975,0.223257 0.32421875,0.285157 0.101819,0.0448 0.21295475,0.06766 0.32421875,0.06836 0.18355,9e-4 0.36109995,-0.06565 0.49999995,-0.185547 l 3.6542969,-3.128906 c 0.97647,-0.8381 2.2208825,-1.300181 3.5078125,-1.300781 h 4.6445314 c 1.8351,-0.003 3.594778,-0.73355 4.892578,-2.03125 C 19.26665,12.055816 19.9971,10.296187 20,8.4609375 V 6.9238281 C 19.9971,5.0886881 19.26645,3.32912 17.96875,2.03125 16.67105,0.73338 14.911472,0.00290106 13.076172,0 Z M 6.1542969,6.5390625 c 0.30597,0 0.5981431,0.1215506 0.8144531,0.3378906 0.2163,0.21635 0.3378906,0.5085232 0.3378906,0.8144531 0,0.3059301 -0.1215506,0.6000963 -0.3378906,0.8164063 -0.21635,0.2163 -0.5085231,0.3378906 -0.8144531,0.3378906 -0.30593,0 -0.6000963,-0.1215506 -0.8164063,-0.3378906 C 5.1215906,8.2914625 5,7.9973362 5,7.6914062 5,7.3854762 5.1215506,7.0932631 5.3378906,6.8769531 c 0.21635,-0.2163 0.5104763,-0.3378906 0.8164063,-0.3378906 z m 3.8457031,0 c 0.30601,0 0.600106,0.1215506 0.816406,0.3378906 0.2163,0.21635 0.337891,0.5085232 0.337891,0.8144531 0,0.3059301 -0.121591,0.6000963 -0.337891,0.8164063 -0.2164,0.2163 -0.510496,0.3378906 -0.816406,0.3378906 -0.30593,0 -0.6000963,-0.1215506 -0.8164062,-0.3378906 -0.2163001,-0.21635 -0.3378907,-0.5104763 -0.3378907,-0.8164063 0,-0.30593 0.1215506,-0.5981431 0.3378907,-0.8144531 C 9.3999438,6.6606531 9.69407,6.5390625 10,6.5390625 Z m 3.845703,0 c 0.306,0 0.600106,0.1215506 0.816406,0.3378906 C 14.878409,7.0933031 15,7.3854763 15,7.6914062 c 0,0.3059301 -0.121591,0.6000963 -0.337891,0.8164063 -0.2164,0.2163 -0.510506,0.3378906 -0.816406,0.3378906 -0.3059,0 -0.600106,-0.1215506 -0.816406,-0.3378906 -0.2163,-0.21635 -0.337891,-0.5104763 -0.337891,-0.8164063 0,-0.30593 0.121491,-0.5981431 0.337891,-0.8144531 0.2163,-0.2163 0.510506,-0.3378906 0.816406,-0.3378906 z" />
</svg>

<svg width="20" height="20" viewBox="0 0 20 20" fill="currentColor" xmlns="http://www.w3.org/2000/svg">
<path d="M0.446167 19.9308C0.547986 19.9756 0.658046 19.9993 0.76931 20C0.95286 20.0009 1.1304 19.9353 1.2693 19.8154L4.9231 16.6846C5.89957 15.8465 7.14386 15.3853 8.43079 15.3847H13.0769C14.912 15.3817 16.6713 14.6515 17.9691 13.3538C19.267 12.0561 19.9971 10.2968 20 8.46155V6.92311C19.9971 5.08797 19.2668 3.32874 17.9691 2.03087C16.6714 0.733 14.9122 0.00290106 13.0769 0H6.92312C5.08798 0.0029189 3.32875 0.733176 2.03088 2.03087C0.733003 3.32857 0.00290315 5.08784 2.09401e-06 6.92311V19.2306C-0.000341286 19.3778 0.0415534 19.5218 0.120537 19.646C0.199692 19.7701 0.31267 19.8688 0.446079 19.9307L0.446167 19.9308ZM13.846 6.53846C14.152 6.53846 14.4456 6.66002 14.6619 6.87636C14.8782 7.09271 14.9998 7.38634 14.9998 7.69227C14.9998 7.9982 14.8782 8.29186 14.6619 8.50817C14.4455 8.72447 14.1519 8.84607 13.846 8.84607C13.5401 8.84607 13.2464 8.72451 13.0301 8.50817C12.8138 8.29182 12.6922 7.9982 12.6922 7.69227C12.6922 7.38634 12.8137 7.09267 13.0301 6.87636C13.2464 6.66006 13.5401 6.53846 13.846 6.53846ZM9.99989 6.53846C10.3059 6.53846 10.5995 6.66002 10.8158 6.87636C11.0321 7.09271 11.1537 7.38634 11.1537 7.69227C11.1537 7.9982 11.0321 8.29186 10.8158 8.50817C10.5994 8.72447 10.3058 8.84607 9.99989 8.84607C9.69396 8.84607 9.40029 8.72451 9.18398 8.50817C8.96768 8.29182 8.84608 7.9982 8.84608 7.69227C8.84608 7.38634 8.96764 7.09267 9.18398 6.87636C9.40033 6.66006 9.69396 6.53846 9.99989 6.53846ZM6.15378 6.53846C6.45975 6.53846 6.75338 6.66002 6.96969 6.87636C7.18599 7.09271 7.30759 7.38634 7.30759 7.69227C7.30759 7.9982 7.18603 8.29186 6.96969 8.50817C6.75334 8.72447 6.45971 8.84607 6.15378 8.84607C5.84785 8.84607 5.55419 8.72451 5.33788 8.50817C5.12158 8.29182 4.99997 7.9982 4.99997 7.69227C4.99997 7.38634 5.12154 7.09267 5.33788 6.87636C5.55423 6.66006 5.84785 6.53846 6.15378 6.53846Z"/>
</svg>
